X: 183
M: C|
L: 1/8
K: G
c | BGDG EGDG | ABcB cedc | (BG).D.G (EG).c.e | dBcA BGG ||
c | BGDG EGDG | ABcB cedc | (Bd).g.B (ce).a.g | fdef gGG |]


